icons/desktop/16/svg/help-fill-16.svg

<svg width="16" height="16" viewBox="0 0 16 16" fill="none" xmlns="http://www.w3.org/2000/svg">
<path fill-rule="evenodd" clip-rule="evenodd" d="M8 0C12.411 0 16 3.589 16 8C16 12.411 12.411 16 8 16C3.589 16 0 12.411 0 8C0 3.589 3.589 0 8 0ZM7.25 11.25V12.75H8.75V11.25H7.25ZM8 3.66113C6.58613 3.66136 5.44066 4.80683 5.44043 6.2207H6.94043C6.94066 5.63526 7.41456 5.16136 8 5.16113C8.58545 5.16136 9.06032 5.63526 9.06055 6.2207C9.0605 6.6439 8.81239 7.01099 8.4502 7.18164L8.32324 7.24609C7.70152 7.58787 7.25112 8.2334 7.25098 9.01074L7.25195 9.75098L8.75195 9.74902L8.75098 9.00977C8.75113 8.83332 8.85967 8.64627 9.08496 8.54102L9.08594 8.54004C9.95465 8.13234 10.5605 7.24867 10.5605 6.2207C10.5603 4.80683 9.41387 3.66136 8 3.66113Z" fill="black"/>
</svg>

<!-- This Source Code Form is subject to the terms of the Mozilla Public
   - License, v. 2.0. If a copy of the MPL was not distributed with this
   - file, You can obtain one at http://mozilla.org/MPL/2.0/. -->
<svg xmlns="http://www.w3.org/2000/svg" width="16" height="16" fill="context-fill" fill-opacity="context-fill-opacity" viewBox="0 0 16 16">
    <path d="M8 0c4.411 0 8 3.589 8 8s-3.589 8-8 8-8-3.589-8-8 3.589-8 8-8m-.75 11.25v1.5h1.5v-1.5zM8 3.661a2.56 2.56 0 0 0-2.56 2.56h1.5a1.06 1.06 0 1 1 1.51.96l-.127.065c-.621.342-1.072.987-1.072 1.765v.74l1.501-.002-.001-.74c0-.176.109-.363.334-.468V8.54A2.562 2.562 0 0 0 8 3.661" />
</svg>
